packages/icons/svg/Outline/percent.svg

<svg fill="none" height="24" viewBox="0 0 24 24" width="24" xmlns="http://www.w3.org/2000/svg"><path clip-rule="evenodd" d="m19.7397 4.26076c-.347-.348-.91-.348-1.257 0l-14.22201 14.22204c-.174.174-.261.401-.261.629 0 .227.087.455.261.628.347.347.909.347 1.257 0l14.22201-14.22204c.347-.348.347-.91 0-1.257zm-3.7397 14.73934c-.827 0-1.5-.673-1.5-1.5s.673-1.5 1.5-1.5 1.5.673 1.5 1.5-.673 1.5-1.5 1.5zm0-4.9999c-1.93 0-3.5 1.57-3.5 3.5s1.57 3.5 3.5 3.5 3.5-1.57 3.5-3.5-1.57-3.5-3.5-3.5zm-8.00001-8.00008c.827 0 1.5.673 1.5 1.5s-.673 1.5-1.5 1.5-1.5-.673-1.5-1.5.673-1.5 1.5-1.5zm.00003 4.99998c1.93 0 3.49998-1.57004 3.49998-3.50004s-1.56998-3.5-3.49998-3.5-3.5 1.57-3.5 3.5 1.57 3.50004 3.5 3.50004z" fill="#6b7280" fill-rule="evenodd"/></svg>

<svg width="24" height="24" viewBox="0 0 24 24" fill="none" xmlns="http://www.w3.org/2000/svg">
<g id="Icon/Outline/percent">
<path id="Mask" fill-rule="evenodd" clip-rule="evenodd" d="M19.7398 4.26069C19.3928 3.91269 18.8298 3.91269 18.4828 4.26069L4.26076 18.4827C4.08676 18.6567 3.99976 18.8837 3.99976 19.1117C3.99976 19.3387 4.08676 19.5667 4.26076 19.7397C4.60776 20.0867 5.16976 20.0867 5.51776 19.7397L19.7398 5.51769C20.0868 5.16969 20.0868 4.60769 19.7398 4.26069ZM16.0001 19C15.1731 19 14.5001 18.327 14.5001 17.5C14.5001 16.673 15.1731 16 16.0001 16C16.8271 16 17.5001 16.673 17.5001 17.5C17.5001 18.327 16.8271 19 16.0001 19ZM16.0001 14C14.0701 14 12.5001 15.57 12.5001 17.5C12.5001 19.43 14.0701 21 16.0001 21C17.9301 21 19.5001 19.43 19.5001 17.5C19.5001 15.57 17.9301 14 16.0001 14ZM8.00006 5.99999C8.82706 5.99999 9.50006 6.67299 9.50006 7.49999C9.50006 8.32699 8.82706 8.99999 8.00006 8.99999C7.17306 8.99999 6.50006 8.32699 6.50006 7.49999C6.50006 6.67299 7.17306 5.99999 8.00006 5.99999ZM8.00006 11C9.93006 11 11.5001 9.42999 11.5001 7.49999C11.5001 5.56999 9.93006 3.99999 8.00006 3.99999C6.07006 3.99999 4.50006 5.56999 4.50006 7.49999C4.50006 9.42999 6.07006 11 8.00006 11Z" fill="#000000"/>
</g>
</svg>
